X: 2202
T: Australian Waters
R: jig
M: 6/8
K: Dmajor
|:d2AFAD|EGB edc|dAF GFE|1 FAd fge:|2 FAD ~D3:|3 FAE DFA||
|:d2fefg|fed ecA|d2fefg|fdc def|
g3faf|ecA ABc|dAF GFE|1 FAE DFA:|2 FAE D3||

